src/assets/social-media/telegram.svg

<svg fill="none" height="24" viewBox="0 0 25 24" width="25" xmlns="http://www.w3.org/2000/svg" xmlns:xlink="http://www.w3.org/1999/xlink"><radialGradient id="a" cx="0" cy="0" gradientTransform="matrix(0 16 -19.3333 0 12 4)" gradientUnits="userSpaceOnUse" r="1"><stop offset="0" stop-color="#fff"/><stop offset="1" stop-color="#fff" stop-opacity=".3"/></radialGradient><path clip-rule="evenodd" d="m3.66244 10.8879c5.18974-2.25797 8.65036-3.74656 10.38196-4.46578 4.9439-2.0535 5.9712-2.41022 6.6407-2.42199.1473-.0026.4766.03385.6899.20669.1801.14593.2296.34308.2533.48144.0238.13837.0533.45357.0298.69985-.2679 2.81109-1.4271 9.63289-2.0169 12.78129-.2496 1.3323-.7409 1.779-1.2166 1.8227-1.0338.095-1.8189-.6823-2.8202-1.3378-1.5668-1.0256-2.452-1.6641-3.9729-2.665-1.75761-1.1566-.6182-1.7924.3835-2.8313.2621-.2719 4.8171-4.40933 4.9053-4.78465.011-.04694.0213-.22192-.0828-.31431-.1041-.0924-.2578-.0608-.3686-.03567-.1572.03561-2.6602 1.68775-7.50916 4.95643-.71048.4872-1.35401.7246-1.93059.7121-.63563-.0137-1.85834-.3589-2.7673-.6539-1.11487-.3619-2.00095-.5533-1.92379-1.1679.04019-.3201.48165-.6475 1.32438-.9822z" fill="url(#a)" fill-rule="evenodd"/></svg>

<svg width="25" height="24" viewBox="0 0 25 24" fill="none" xmlns="http://www.w3.org/2000/svg">
<path fill-rule="evenodd" clip-rule="evenodd" d="M3.66244 10.8879C8.85218 8.62993 12.3128 7.14134 14.0444 6.42212C18.9883 4.36862 20.0156 4.0119 20.6851 4.00013C20.8324 3.99753 21.1617 4.03398 21.375 4.20682C21.5551 4.35275 21.6046 4.5499 21.6283 4.68826C21.6521 4.82663 21.6816 5.14183 21.6581 5.38811C21.3902 8.1992 20.231 15.021 19.6412 18.1694C19.3916 19.5017 18.9003 19.9484 18.4246 19.9921C17.3908 20.0871 16.6057 19.3098 15.6044 18.6543C14.0376 17.6287 13.1524 16.9902 11.6315 15.9893C9.87389 14.8327 11.0133 14.1969 12.015 13.158C12.2771 12.8861 16.8321 8.74867 16.9203 8.37335C16.9313 8.32641 16.9416 8.15143 16.8375 8.05904C16.7334 7.96664 16.5797 7.99824 16.4689 8.02337C16.3117 8.05898 13.8087 9.71112 8.95974 12.9798C8.24926 13.467 7.60573 13.7044 7.02915 13.6919C6.39352 13.6782 5.17081 13.333 4.26185 13.038C3.14698 12.6761 2.2609 12.4847 2.33806 11.8701C2.37825 11.55 2.81971 11.2226 3.66244 10.8879Z" fill="url(#paint0_radial_7462_3945)"/>
<defs>
<radialGradient id="paint0_radial_7462_3945" cx="0" cy="0" r="1" gradientUnits="userSpaceOnUse" gradientTransform="translate(12 4) rotate(90) scale(16 19.3333)">
<stop stop-color="white"/>
<stop offset="1" stop-color="white" stop-opacity="0.3"/>
</radialGradient>
</defs>
</svg>
